!!!COM:	Pierre de la Rue
**kern	**kern
*part2	*part1
*staff2	*staff1
*clefGv2	*clefG2
*k[]	*k[]
*M2/1	*M2/1
=1-	=1-
0r	1f
.	1f
=2	=2
1c	1a
1c	1g
=3	=3
0e	2r
.	1cc
.	[2b
=4	=4
0d	2b]
.	4a
.	4g
.	1a
=5	=5
2r	2r
1f	1dd
[2e	[2cc
=6	=6
2e]	2cc]
4d	4b
4c	4a
1d	1b
=7	=7
0c	1cc
.	2r
.	2g
=8	=8
2r	2a
2G	2b
2A	2cc
4B	2dd
4A	.
=9	=9
4B	4dd
4c	4cc
2d	4b
.	4a
2e	1g
2c	.
=10	=10
2d	2r
2e	2g
2f	2a
[2g	2b
=11	=11
2g]	2cc
4f	1dd
4e	.
2d	.
[2g	4cc
.	4b
=12	=12
2g]	1a
2f	.
1g	2r
.	[2g
=13	=13
2r	4g]
.	4a
2.G	4b
.	4cc
.	2dd
4A	.
4B	4g
4c	4a
=14	=14
2d	4b
.	4cc
2G	2dd
4c	2g
4d	.
4e	2cc
4f	.
=15	=15
2g	2b
2c	2.a
4f	.
4e	4g
4d	4f
4c	4e
=16	=16
2d	2f
2.c	2e
.	4d
4B	4c
2B	2d
=17	=17
[0c	1.e
.	2c
=18	=18
0c]	0c
==	==
*-	*-
